flags/bt.svg

<svg width="512" height="512" viewBox="0 0 512 512" fill="none" xmlns="http://www.w3.org/2000/svg">
<path d="M512 0V512H0.00030365L0.015625 0H512Z" fill="var(--flag-palette-gold, #ff9811)"/>
<path d="M0 512L-4.47605e-05 4.47605e-05L512 0L0 512Z" fill="var(--flag-palette-yellow, #ffda44)"/>
<path d="M400.816 144.695V100.173H315.48L308.96 106.692C285.771 129.881 289.672 156.933 292.52 176.685C295.161 195.008 295.478 202.027 288.664 208.842C281.85 215.655 274.829 215.339 256.508 212.696C236.756 209.849 209.705 205.948 186.516 229.136C163.328 252.324 167.231 279.374 170.081 299.125C172.724 317.446 173.042 324.465 166.23 331.276C159.417 338.087 152.396 337.77 134.079 335.127C126.937 334.096 119.552 333.032 111.668 332.944L111.179 377.464C116.113 377.519 121.752 378.331 127.722 379.193C134.79 380.214 142.79 381.368 151.216 381.368C159.948 381.368 169.134 380.123 178.206 376.206V411.827H244.989V378.436H211.598V356.175H233.859V322.784H216.067C216.911 311.982 215.427 301.638 214.147 292.77C211.504 274.449 211.186 267.43 217.998 260.62C224.812 253.806 231.83 254.122 250.154 256.764C264.547 258.839 282.815 261.461 300.642 253.765V289.392H367.425V256.001H334.034V233.74H356.295V200.349H338.504C339.349 189.546 337.866 179.203 336.586 170.332C334.741 157.531 334.029 150.247 336.093 144.696L400.816 144.695Z" fill="var(--flag-palette-white, #eeeeee)"/>
</svg>

<svg xmlns="http://www.w3.org/2000/svg" width="512" height="512" fill="none"><path fill="var(--flag-palette-gold, #ff9811)" d="M512 0v512H0V0z"/><path fill="var(--flag-palette-yellow, #ffda44)" d="M0 512V0h512z"/><path fill="var(--flag-palette-white, #eeeeee)" d="M400.8 144.7v-44.5h-85.3l-6.5 6.5c-23.2 23.2-19.3 50.2-16.5 70 2.7 18.3 3 25.3-3.8 32.1s-13.9 6.5-32.2 3.9c-19.7-2.9-46.8-6.8-70 16.4s-19.3 50.3-16.4 70c2.6 18.3 3 25.4-3.9 32.2-6.8 6.8-13.8 6.5-32.1 3.8q-10.7-1.7-22.4-2.2l-.5 44.6q7.6.2 16.5 1.7c7 1 15 2.2 23.5 2.2 8.7 0 18-1.3 27-5.2v35.6H245v-33.4h-33.4v-22.2h22.3v-33.4H216c.8-10.8-.7-21.2-2-30-2.6-18.4-3-25.4 3.9-32.2 6.8-6.8 13.8-6.5 32.2-3.8 14.3 2 32.6 4.7 50.4-3v35.6h66.8V256H334v-22.3h22.3v-33.4h-17.8a130 130 0 0 0-2-30c-1.8-12.8-2.5-20-.4-25.6z"/></svg>
